X:5
T:No.15 Rakish Paddy
C:reel
M:4/4
L:1/8
K:G
cded ccBc|AcGc ADDD|Ddd^c d3 de|
fd (3efg fded|cded ccBc|AcG=F EDCE|
DCDE =FAdB|[1cAGc ADDB:|[2cAGc ADgf||
efgb (3agf ge|gagf edce|(3ddd ad bdad|abag fedf|
efgb (3agf ge|gagf edce|defg abaf|ggag fddf:|
